src/components/00-materials/images-raw/Motor Disability.svg

<svg width="96" height="96" viewBox="0 0 96 96" fill="none" xmlns="http://www.w3.org/2000/svg">
<path d="M32.83 51.4301V81.3901M47 27.4601C48.2696 27.4561 49.5096 27.0764 50.5637 26.3688C51.6178 25.6611 52.4389 24.6573 52.9234 23.4838C53.4078 22.3103 53.5341 21.0196 53.2861 19.7744C53.0382 18.5293 52.4272 17.3854 51.5301 16.4869C50.6331 15.5885 49.4902 14.9757 48.2454 14.7259C47.0006 14.476 45.7097 14.6002 44.5355 15.0829C43.3612 15.5655 42.3561 16.385 41.6468 17.438C40.9376 18.4911 40.5559 19.7305 40.55 21.0001C40.546 21.8487 40.7101 22.6897 41.0327 23.4746C41.3553 24.2595 41.8301 24.9727 42.4297 25.5733C43.0293 26.1738 43.7419 26.6497 44.5263 26.9735C45.3106 27.2974 46.1514 27.4627 47 27.4601ZM33.79 51.8101C34.2287 51.9637 34.6951 52.022 35.1581 51.9812C35.6211 51.9403 36.0701 51.8012 36.4751 51.5731C36.8801 51.3451 37.2319 51.0333 37.5069 50.6586C37.7819 50.2839 37.9739 49.8548 38.07 49.4001L40.17 41.6001L36.69 58.4401C36.5398 58.8224 36.4618 59.2293 36.46 59.6401C36.46 60.5047 36.8035 61.3339 37.4148 61.9452C38.0262 62.5566 38.8554 62.9001 39.72 62.9001H40.08V78.1301C40.0555 78.5727 40.1214 79.0157 40.2739 79.4319C40.4264 79.8482 40.6622 80.229 40.9669 80.551C41.2715 80.873 41.6387 81.1295 42.0459 81.3048C42.453 81.4801 42.8917 81.5706 43.335 81.5706C43.7783 81.5706 44.217 81.4801 44.6241 81.3048C45.0313 81.1295 45.3985 80.873 45.7031 80.551C46.0078 80.229 46.2436 79.8482 46.3961 79.4319C46.5486 79.0157 46.6145 78.5727 46.59 78.1301V62.9001H47.37V78.1301C47.37 78.9947 47.7135 79.8239 48.3248 80.4352C48.9362 81.0466 49.7654 81.3901 50.63 81.3901C51.4946 81.3901 52.3238 81.0466 52.9352 80.4352C53.5465 79.8239 53.89 78.9947 53.89 78.1301V62.9001H54.24C54.7691 62.895 55.2891 62.7613 55.755 62.5103C56.2208 62.2594 56.6186 61.8988 56.9139 61.4597C57.2093 61.0206 57.3933 60.5163 57.4501 59.9902C57.5069 59.4641 57.4348 58.9321 57.24 58.4401L53.8 41.6001L55.88 49.3401C56.018 50.0877 56.4138 50.7633 56.9985 51.2493C57.5831 51.7354 58.3197 52.001 59.08 52.0001C59.598 52.0261 60.1146 51.9263 60.5855 51.7091C61.0565 51.492 61.4678 51.1639 61.7843 50.7531C62.1008 50.3422 62.3131 49.8608 62.4029 49.35C62.4927 48.8392 62.4574 48.3142 62.3 47.8201L57.44 30.8801C57.3083 30.1269 56.9152 29.4443 56.3299 28.9523C55.7446 28.4603 55.0046 28.1904 54.24 28.1901H39.72C38.9554 28.1904 38.2154 28.4603 37.6301 28.9523C37.0448 29.4443 36.6517 30.1269 36.52 30.8801C36.52 30.8801 32.52 44.6601 31.66 47.8201C30.8 50.9801 33.11 51.5801 33.79 51.8101Z" stroke="#00008F" stroke-width="2" stroke-linecap="round" stroke-linejoin="round"/>
</svg>

<svg width="96" height="96" viewBox="0 0 96 96" fill="none" xmlns="http://www.w3.org/2000/svg"><path d="M32.83 51.43v29.96M47 27.46a6.43 6.43 0 10-.04-12.86A6.43 6.43 0 0047 27.46zM33.79 51.81a3.271 3.271 0 004.28-2.41l2.1-7.8-3.48 16.84a3.26 3.26 0 003.03 4.46h.36v15.23a3.26 3.26 0 106.51 0V62.9h.78v15.23a3.26 3.26 0 006.52 0V62.9h.35a3.26 3.26 0 003-4.46L53.8 41.6l2.08 7.74a3.25 3.25 0 003.2 2.66 3.21 3.21 0 003.22-4.18l-4.86-16.94a3.25 3.25 0 00-3.2-2.69H39.72a3.25 3.25 0 00-3.2 2.69s-4 13.78-4.86 16.94c-.86 3.16 1.45 3.76 2.13 3.99z" stroke="#00008F" stroke-width="2" stroke-linecap="round" stroke-linejoin="round"/></svg>
